modules/coreui-icons-free/icons/battery-alert.svg

<!-- Generated by IcoMoon.io -->
<svg version="1.1" xmlns="http://www.w3.org/2000/svg" width="24" height="24" viewBox="0 0 24 24">
<title>battery-alert</title>
<path d="M20.25 8.25v-2.644c-0.006-0.612-0.504-1.106-1.117-1.106-0.003 0-0.006 0-0.009 0h-7.875v1.5h7.5v3.75h3v4.875h-3v3.75h-16.501v-12.375h3.001v-1.5h-3.376c-0.002-0-0.005-0-0.008-0-0.613 0-1.111 0.494-1.117 1.105v13.164c0.006 0.612 0.504 1.106 1.117 1.106 0.003 0 0.006 0 0.009-0h17.25c0.002 0 0.005 0 0.008 0 0.613 0 1.111-0.494 1.117-1.105v-2.645h3v-7.875z"></path>
<path d="M9 3v-0.375h-1.5v9.375h1.5v-9z"></path>
<path d="M9 14.25v-0.75h-1.5v1.5h1.5v-0.75z"></path>
</svg>

<svg xmlns="http://www.w3.org/2000/svg" width="24" height="24" viewBox="0 0 24 24"><path d="M20.25 8.25V5.606A1.117 1.117 0 0019.133 4.5h-7.884V6h7.5v3.75h3v4.875h-3v3.75H2.248V6h3.001V4.5H1.865c-.613 0-1.111.494-1.117 1.105v13.164a1.117 1.117 0 001.117 1.106h17.267c.613 0 1.111-.494 1.117-1.105v-2.645h3V8.25z"/><path d="M9 3v-.375H7.5V12H9V3zM9 14.25v-.75H7.5V15H9v-.75z"/></svg>
